X: 38673
T: Strange, The
R: jig
M: 6/8
K: Gmajor
D|:GBd gdB|ece dBG|cec BdB|ABG FED|
GBd gdB|ece dBG|gfg ecA|1 DFA G2D:|2 DFA GBd||
|:gfg afd|ece dBG|cec BdB|ABA ABd|
gfg afd|ece dBG|gfg ecA|1 DFA GBd:|2 DFA [G3G,3]||

